images/iconography/border-dont1.svg

<svg xmlns="http://www.w3.org/2000/svg" xmlns:xlink="http://www.w3.org/1999/xlink" width="300" height="300" style="background:#fff" viewBox="0 0 300 300">
  <defs>
    <polygon id="border-dont1-a" points="0 0 209 0 209 209 0 209"/>
    <polygon id="border-dont1-c" points="0 0 209 0 209 208.791 0 208.791"/>
    <polygon id="border-dont1-e" points="0 0 209 0 209 209 0 209"/>
    <path id="border-dont1-g" d="M176.785714,225.299783 C191.483807,219.71143 201.928571,205.492135 201.928571,188.833333 L201.928571,129.312841 L150.5,77.8842692 L99.0714286,129.312841 L99.0714286,191.833333 C99.0714286,207.931814 109.638219,221.562289 124.214286,226.167245 L124.214286,163.118641 C124.214286,155.942866 130.089143,150.119048 137.357143,150.119048 L163.642857,150.119048 C170.910857,150.119048 176.785714,155.942866 176.785714,163.118641 L176.785714,225.299783 Z M72.4047619,155.979507 L68.6935565,159.690713 C63.6107153,164.773554 55.394972,164.773554 50.3121309,159.690713 C45.2292897,154.607872 45.2292897,146.392128 50.3121309,141.309287 L141.309287,50.3121309 C146.392128,45.2292897 154.607872,45.2292897 159.690713,50.3121309 L250.687869,141.309287 C255.77071,146.392128 255.77071,154.607872 250.687869,159.690713 C248.152948,162.225634 244.825052,163.499594 241.497156,163.499594 C238.16926,163.499594 234.841364,162.225634 232.306444,159.690713 L228.595238,155.979507 L228.595238,213.5 C228.595238,236.143675 210.238913,254.5 187.595238,254.5 L120.404762,254.5 C93.8950939,254.5 72.4047619,233.009668 72.4047619,206.5 L72.4047619,155.979507 Z M156.999797,202.498375 C153.411909,202.498375 150.5,199.586466 150.5,195.998578 C150.5,192.41069 153.411909,189.498781 156.999797,189.498781 C160.587685,189.498781 163.499594,192.41069 163.499594,195.998578 C163.499594,199.586466 160.587685,202.498375 156.999797,202.498375"/>
    <rect id="border-dont1-h" width="40" height="52" x="189" y="216"/>
    <filter id="border-dont1-i" width="102.5%" height="101.9%" x="-1.2%" y="-1%" filterUnits="objectBoundingBox">
      <feOffset dx="1" in="SourceAlpha" result="shadowOffsetInner1"/>
      <feComposite in="shadowOffsetInner1" in2="SourceAlpha" k2="-1" k3="1" operator="arithmetic" result="shadowInnerInner1"/>
      <feColorMatrix in="shadowInnerInner1" result="shadowMatrixInner1" values="0 0 0 0 0.0392156863   0 0 0 0 0.517647059   0 0 0 0 1  0 0 0 1 0"/>
      <feOffset dx="-1" in="SourceAlpha" result="shadowOffsetInner2"/>
      <feComposite in="shadowOffsetInner2" in2="SourceAlpha" k2="-1" k3="1" operator="arithmetic" result="shadowInnerInner2"/>
      <feColorMatrix in="shadowInnerInner2" result="shadowMatrixInner2" values="0 0 0 0 0.0392156863   0 0 0 0 0.517647059   0 0 0 0 1  0 0 0 1 0"/>
      <feMerge>
        <feMergeNode in="shadowMatrixInner1"/>
        <feMergeNode in="shadowMatrixInner2"/>
      </feMerge>
    </filter>
    <rect id="border-dont1-j" width="40" height="79" x="98" y="189"/>
    <filter id="border-dont1-k" width="102.5%" height="101.3%" x="-1.2%" y="-.6%" filterUnits="objectBoundingBox">
      <feOffset dx="1" in="SourceAlpha" result="shadowOffsetInner1"/>
      <feComposite in="shadowOffsetInner1" in2="SourceAlpha" k2="-1" k3="1" operator="arithmetic" result="shadowInnerInner1"/>
      <feColorMatrix in="shadowInnerInner1" result="shadowMatrixInner1" values="0 0 0 0 0.0392156863   0 0 0 0 0.517647059   0 0 0 0 1  0 0 0 1 0"/>
      <feOffset dx="-1" in="SourceAlpha" result="shadowOffsetInner2"/>
      <feComposite in="shadowOffsetInner2" in2="SourceAlpha" k2="-1" k3="1" operator="arithmetic" result="shadowInnerInner2"/>
      <feColorMatrix in="shadowInnerInner2" result="shadowMatrixInner2" values="0 0 0 0 0.0392156863   0 0 0 0 0.517647059   0 0 0 0 1  0 0 0 1 0"/>
      <feMerge>
        <feMergeNode in="shadowMatrixInner1"/>
        <feMergeNode in="shadowMatrixInner2"/>
      </feMerge>
    </filter>
  </defs>
  <g fill="none" fill-rule="evenodd">
    <g transform="translate(46 46)">
      <mask id="border-dont1-b" fill="#fff">
        <use xlink:href="#border-dont1-a"/>
      </mask>
      <g mask="url(#border-dont1-b)">
        <mask id="border-dont1-d" fill="#fff">
          <use xlink:href="#border-dont1-c"/>
        </mask>
        <rect width="209" height="1" fill="#D7D7DB" mask="url(#border-dont1-d)"/>
        <rect width="209" height="1" y="13" fill="#D7D7DB" mask="url(#border-dont1-d)"/>
        <rect width="209" height="1" y="26" fill="#D7D7DB" mask="url(#border-dont1-d)"/>
        <rect width="209" height="1" y="39" fill="#D7D7DB" mask="url(#border-dont1-d)"/>
        <rect width="209" height="1" y="52" fill="#D7D7DB" mask="url(#border-dont1-d)"/>
        <rect width="209" height="1" y="65" fill="#D7D7DB" mask="url(#border-dont1-d)"/>
        <rect width="209" height="1" y="78" fill="#D7D7DB" mask="url(#border-dont1-d)"/>
        <rect width="209" height="1" y="91" fill="#D7D7DB" mask="url(#border-dont1-d)"/>
        <rect width="209" height="1" y="104" fill="#D7D7DB" mask="url(#border-dont1-d)"/>
        <rect width="209" height="1" y="117" fill="#D7D7DB" mask="url(#border-dont1-d)"/>
        <rect width="209" height="1" y="130" fill="#D7D7DB" mask="url(#border-dont1-d)"/>
        <rect width="209" height="1" y="143" fill="#D7D7DB" mask="url(#border-dont1-d)"/>
        <rect width="209" height="1" y="156" fill="#D7D7DB" mask="url(#border-dont1-d)"/>
        <rect width="209" height="1" y="169" fill="#D7D7DB" mask="url(#border-dont1-d)"/>
        <rect width="209" height="1" y="182" fill="#D7D7DB" mask="url(#border-dont1-d)"/>
        <rect width="209" height="1" y="195" fill="#D7D7DB" mask="url(#border-dont1-d)"/>
        <rect width="209" height="1" y="208" fill="#D7D7DB" mask="url(#border-dont1-d)"/>
      </g>
      <g>
        <mask id="border-dont1-f" fill="#fff">
          <use xlink:href="#border-dont1-e"/>
        </mask>
        <rect width="1" height="209" fill="#D7D7DB" mask="url(#border-dont1-f)"/>
        <rect width="1" height="209" x="13" fill="#D7D7DB" mask="url(#border-dont1-f)"/>
        <rect width="1" height="209" x="26" fill="#D7D7DB" mask="url(#border-dont1-f)"/>
        <rect width="1" height="209" x="39" fill="#D7D7DB" mask="url(#border-dont1-f)"/>
        <rect width="1" height="209" x="52" fill="#D7D7DB" mask="url(#border-dont1-f)"/>
        <rect width="1" height="209" x="65" fill="#D7D7DB" mask="url(#border-dont1-f)"/>
        <rect width="1" height="209" x="78" fill="#D7D7DB" mask="url(#border-dont1-f)"/>
        <rect width="1" height="209" x="91" fill="#D7D7DB" mask="url(#border-dont1-f)"/>
        <rect width="1" height="209" x="104" fill="#D7D7DB" mask="url(#border-dont1-f)"/>
        <rect width="1" height="209" x="117" fill="#D7D7DB" mask="url(#border-dont1-f)"/>
        <rect width="1" height="209" x="130" fill="#D7D7DB" mask="url(#border-dont1-f)"/>
        <rect width="1" height="209" x="143" fill="#D7D7DB" mask="url(#border-dont1-f)"/>
        <rect width="1" height="209" x="156" fill="#D7D7DB" mask="url(#border-dont1-f)"/>
        <rect width="1" height="209" x="169" fill="#D7D7DB" mask="url(#border-dont1-f)"/>
        <rect width="1" height="209" x="182" fill="#D7D7DB" mask="url(#border-dont1-f)"/>
        <rect width="1" height="209" x="195" fill="#D7D7DB" mask="url(#border-dont1-f)"/>
        <rect width="1" height="209" x="208" fill="#D7D7DB" mask="url(#border-dont1-f)"/>
      </g>
      <rect width="195" height="195" x="7" y="7" stroke="#000" stroke-width="14" opacity=".1"/>
    </g>
    <use fill="#FFF" xlink:href="#border-dont1-g"/>
    <use fill="#0C0C0D" fill-opacity=".8" xlink:href="#border-dont1-g"/>
    <path fill="#0A84FF" fill-opacity=".8" d="M111.63 274.128C111.986002 274.312001 112.257999 274.559998 112.446 274.872 112.634001 275.184002 112.728 275.523998 112.728 275.892 112.728 276.380002 112.586001 276.781998 112.302 277.098 112.017999 277.414002 111.640002 277.627999 111.168 277.74 111.704003 277.788 112.139998 277.979998 112.476 278.316 112.812002 278.652002 112.98 279.107997 112.98 279.684 112.98 280.148002 112.868001 280.567998 112.644 280.944 112.419999 281.320002 112.100002 281.613999 111.684 281.826 111.267998 282.038001 110.788003 282.144 110.244 282.144 109.755998 282.144 109.308002 282.054001 108.9 281.874 108.491998 281.693999 108.136002 281.424002 107.832 281.064L108.492 280.452C108.756001 280.724001 109.025999 280.923999 109.302 281.052 109.578001 281.180001 109.879998 281.244 110.208 281.244 110.712003 281.244 111.107999 281.102001 111.396 280.818 111.684001 280.533999 111.828 280.152002 111.828 279.672 111.828 279.143997 111.692001 278.772001 111.42 278.556 111.147999 278.339999 110.752003 278.232 110.232 278.232L109.632 278.232 109.764 277.38 110.172 277.38C110.588002 277.38 110.933999 277.256001 111.21 277.008 111.486001 276.759999 111.624 276.412002 111.624 275.964 111.624 275.587998 111.504001 275.290001 111.264 275.07 111.023999 274.849999 110.700002 274.74 110.292 274.74 109.979998 274.74 109.694001 274.795999 109.434 274.908 109.173999 275.020001 108.908001 275.203999 108.636 275.46L108.06 274.8C108.740003 274.167997 109.503996 273.852 110.352 273.852 110.848002 273.852 111.273998 273.943999 111.63 274.128zM119.46 276.396C119.836002 276.972003 120.024 277.783995 120.024 278.832 120.024 279.824005 119.808002 280.623997 119.376 281.232 118.943998 281.840003 118.332004 282.144 117.54 282.144 116.835996 282.144 116.284002 281.904002 115.884 281.424L115.884 284.424 114.78 284.556 114.78 275.676 115.728 275.676 115.812 276.528C116.044001 276.207998 116.323998 275.962001 116.652 275.79 116.980002 275.617999 117.323998 275.532 117.684 275.532 118.492004 275.532 119.083998 275.819997 119.46 276.396zM118.836 278.832C118.836 277.215992 118.360005 276.408 117.408 276.408 117.095998 276.408 116.812001 276.499999 116.556 276.684 116.299999 276.868001 116.076001 277.103999 115.884 277.392L115.884 280.476C116.044001 280.724001 116.243999 280.913999 116.484 281.046 116.724001 281.178001 116.987999 281.244 117.276 281.244 118.316005 281.244 118.836 280.440008 118.836 278.832zM126.288 282L124.956 282 123.408 279.324 121.836 282 120.588 282 122.796 278.664 120.84 275.676 122.136 275.676 123.456 277.992 124.788 275.676 126.036 275.676 124.092 278.616 126.288 282zM203.798 274.276C204.154002 274.460001 204.425999 274.707998 204.614 275.02 204.802001 275.332002 204.896 275.671998 204.896 276.04 204.896 276.528002 204.754001 276.929998 204.47 277.246 204.185999 277.562002 203.808002 277.775999 203.336 277.888 203.872003 277.936 204.307998 278.127998 204.644 278.464 204.980002 278.800002 205.148 279.255997 205.148 279.832 205.148 280.296002 205.036001 280.715998 204.812 281.092 204.587999 281.468002 204.268002 281.761999 203.852 281.974 203.435998 282.186001 202.956003 282.292 202.412 282.292 201.923998 282.292 201.476002 282.202001 201.068 282.022 200.659998 281.841999 200.304002 281.572002 200 281.212L200.66 280.6C200.924001 280.872001 201.193999 281.071999 201.47 281.2 201.746001 281.328001 202.047998 281.392 202.376 281.392 202.880003 281.392 203.275999 281.250001 203.564 280.966 203.852001 280.681999 203.996 280.300002 203.996 279.82 203.996 279.291997 203.860001 278.920001 203.588 278.704 203.315999 278.487999 202.920003 278.38 202.4 278.38L201.8 278.38 201.932 277.528 202.34 277.528C202.756002 277.528 203.101999 277.404001 203.378 277.156 203.654001 276.907999 203.792 276.560002 203.792 276.112 203.792 275.735998 203.672001 275.438001 203.432 275.218 203.191999 274.997999 202.868002 274.888 202.46 274.888 202.147998 274.888 201.862001 274.943999 201.602 275.056 201.341999 275.168001 201.076001 275.351999 200.804 275.608L200.228 274.948C200.908003 274.315997 201.671996 274 202.52 274 203.016002 274 203.441998 274.091999 203.798 274.276zM211.628 276.544C212.004002 277.120003 212.192 277.931995 212.192 278.98 212.192 279.972005 211.976002 280.771997 211.544 281.38 211.111998 281.988003 210.500004 282.292 209.708 282.292 209.003996 282.292 208.452002 282.052002 208.052 281.572L208.052 284.572 206.948 284.704 206.948 275.824 207.896 275.824 207.98 276.676C208.212001 276.355998 208.491998 276.110001 208.82 275.938 209.148002 275.765999 209.491998 275.68 209.852 275.68 210.660004 275.68 211.251998 275.967997 211.628 276.544zM211.004 278.98C211.004 277.363992 210.528005 276.556 209.576 276.556 209.263998 276.556 208.980001 276.647999 208.724 276.832 208.467999 277.016001 208.244001 277.251999 208.052 277.54L208.052 280.624C208.212001 280.872001 208.411999 281.061999 208.652 281.194 208.892001 281.326001 209.155999 281.392 209.444 281.392 210.484005 281.392 211.004 280.588008 211.004 278.98zM218.456 282.148L217.124 282.148 215.576 279.472 214.004 282.148 212.756 282.148 214.964 278.812 213.008 275.824 214.304 275.824 215.624 278.14 216.956 275.824 218.204 275.824 216.26 278.764 218.456 282.148z"/>
    <rect width="76" height="76" x="152" y="177.5" stroke="#0A84FF" stroke-width="2" rx="38"/>
    <rect width="76" height="76" x="99" y="153" stroke="#0A84FF" stroke-width="2" rx="38"/>
    <use fill="#0A84FF" fill-opacity=".25" xlink:href="#border-dont1-h"/>
    <use fill="#000" filter="url(#border-dont1-i)" xlink:href="#border-dont1-h"/>
    <g>
      <use fill="#0A84FF" fill-opacity=".25" xlink:href="#border-dont1-j"/>
      <use fill="#000" filter="url(#border-dont1-k)" xlink:href="#border-dont1-j"/>
    </g>
  </g>
</svg>

<svg xmlns="http://www.w3.org/2000/svg" xmlns:xlink="http://www.w3.org/1999/xlink" style="background:#fff" viewBox="0 0 300 300"><defs><polygon id="a" points="0 0 209 0 209 209 0 209"/><polygon id="c" points="0 0 209 0 209 208.791 0 208.791"/><polygon id="e" points="0 0 209 0 209 209 0 209"/><path id="g" d="M176.79 225.3a39.01 39.01 0 0 0 25.14-36.47v-59.52L150.5 77.88l-51.43 51.43v62.52a36.02 36.02 0 0 0 25.14 34.34v-63.05c0-7.18 5.88-13 13.15-13h26.28c7.27 0 13.15 5.82 13.15 13v62.18zM72.4 155.98l-3.7 3.71a12.99 12.99 0 0 1-18.39 0 12.99 12.99 0 0 1 0-18.38l91-91a12.99 12.99 0 0 1 18.38 0l91 91a12.99 12.99 0 0 1-9.2 22.19c-3.32 0-6.65-1.27-9.18-3.8l-3.71-3.72v57.52a41 41 0 0 1-41 41h-67.2a48 48 0 0 1-48-48v-50.52zM157 202.5a6.5 6.5 0 1 1 0-13 6.5 6.5 0 0 1 0 13"/><rect id="h" width="40" height="52" x="189" y="216"/><filter id="i" width="102.5%" height="101.9%" x="-1.2%" y="-1%" filterUnits="objectBoundingBox"><feOffset dx="1" in="SourceAlpha" result="shadowOffsetInner1"/><feComposite in="shadowOffsetInner1" in2="SourceAlpha" k2="-1" k3="1" operator="arithmetic" result="shadowInnerInner1"/><feColorMatrix in="shadowInnerInner1" result="shadowMatrixInner1" values="0 0 0 0 0.0392156863 0 0 0 0 0.517647059 0 0 0 0 1 0 0 0 1 0"/><feOffset dx="-1" in="SourceAlpha" result="shadowOffsetInner2"/><feComposite in="shadowOffsetInner2" in2="SourceAlpha" k2="-1" k3="1" operator="arithmetic" result="shadowInnerInner2"/><feColorMatrix in="shadowInnerInner2" result="shadowMatrixInner2" values="0 0 0 0 0.0392156863 0 0 0 0 0.517647059 0 0 0 0 1 0 0 0 1 0"/><feMerge><feMergeNode in="shadowMatrixInner1"/><feMergeNode in="shadowMatrixInner2"/></feMerge></filter><rect id="j" width="40" height="79" x="98" y="189"/><filter id="k" width="102.5%" height="101.3%" x="-1.2%" y="-.6%" filterUnits="objectBoundingBox"><feOffset dx="1" in="SourceAlpha" result="shadowOffsetInner1"/><feComposite in="shadowOffsetInner1" in2="SourceAlpha" k2="-1" k3="1" operator="arithmetic" result="shadowInnerInner1"/><feColorMatrix in="shadowInnerInner1" result="shadowMatrixInner1" values="0 0 0 0 0.0392156863 0 0 0 0 0.517647059 0 0 0 0 1 0 0 0 1 0"/><feOffset dx="-1" in="SourceAlpha" result="shadowOffsetInner2"/><feComposite in="shadowOffsetInner2" in2="SourceAlpha" k2="-1" k3="1" operator="arithmetic" result="shadowInnerInner2"/><feColorMatrix in="shadowInnerInner2" result="shadowMatrixInner2" values="0 0 0 0 0.0392156863 0 0 0 0 0.517647059 0 0 0 0 1 0 0 0 1 0"/><feMerge><feMergeNode in="shadowMatrixInner1"/><feMergeNode in="shadowMatrixInner2"/></feMerge></filter></defs><g fill="none" fill-rule="evenodd"><g transform="translate(46 46)"><mask id="b" fill="white"><use xlink:href="#a"/></mask><g mask="url(#b)"><mask id="d" fill="white"><use xlink:href="#c"/></mask><rect width="209" height="1" fill="#D7D7DB" mask="url(#d)"/><rect width="209" height="1" y="13" fill="#D7D7DB" mask="url(#d)"/><rect width="209" height="1" y="26" fill="#D7D7DB" mask="url(#d)"/><rect width="209" height="1" y="39" fill="#D7D7DB" mask="url(#d)"/><rect width="209" height="1" y="52" fill="#D7D7DB" mask="url(#d)"/><rect width="209" height="1" y="65" fill="#D7D7DB" mask="url(#d)"/><rect width="209" height="1" y="78" fill="#D7D7DB" mask="url(#d)"/><rect width="209" height="1" y="91" fill="#D7D7DB" mask="url(#d)"/><rect width="209" height="1" y="104" fill="#D7D7DB" mask="url(#d)"/><rect width="209" height="1" y="117" fill="#D7D7DB" mask="url(#d)"/><rect width="209" height="1" y="130" fill="#D7D7DB" mask="url(#d)"/><rect width="209" height="1" y="143" fill="#D7D7DB" mask="url(#d)"/><rect width="209" height="1" y="156" fill="#D7D7DB" mask="url(#d)"/><rect width="209" height="1" y="169" fill="#D7D7DB" mask="url(#d)"/><rect width="209" height="1" y="182" fill="#D7D7DB" mask="url(#d)"/><rect width="209" height="1" y="195" fill="#D7D7DB" mask="url(#d)"/><rect width="209" height="1" y="208" fill="#D7D7DB" mask="url(#d)"/></g><g><mask id="f" fill="white"><use xlink:href="#e"/></mask><rect width="1" height="209" fill="#D7D7DB" mask="url(#f)"/><rect width="1" height="209" x="13" fill="#D7D7DB" mask="url(#f)"/><rect width="1" height="209" x="26" fill="#D7D7DB" mask="url(#f)"/><rect width="1" height="209" x="39" fill="#D7D7DB" mask="url(#f)"/><rect width="1" height="209" x="52" fill="#D7D7DB" mask="url(#f)"/><rect width="1" height="209" x="65" fill="#D7D7DB" mask="url(#f)"/><rect width="1" height="209" x="78" fill="#D7D7DB" mask="url(#f)"/><rect width="1" height="209" x="91" fill="#D7D7DB" mask="url(#f)"/><rect width="1" height="209" x="104" fill="#D7D7DB" mask="url(#f)"/><rect width="1" height="209" x="117" fill="#D7D7DB" mask="url(#f)"/><rect width="1" height="209" x="130" fill="#D7D7DB" mask="url(#f)"/><rect width="1" height="209" x="143" fill="#D7D7DB" mask="url(#f)"/><rect width="1" height="209" x="156" fill="#D7D7DB" mask="url(#f)"/><rect width="1" height="209" x="169" fill="#D7D7DB" mask="url(#f)"/><rect width="1" height="209" x="182" fill="#D7D7DB" mask="url(#f)"/><rect width="1" height="209" x="195" fill="#D7D7DB" mask="url(#f)"/><rect width="1" height="209" x="208" fill="#D7D7DB" mask="url(#f)"/></g><rect width="195" height="195" x="7" y="7" stroke="#000000" stroke-width="14" opacity=".1"/></g><use fill="#FFFFFF" xlink:href="#g"/><use fill="#0C0C0D" fill-opacity=".8" xlink:href="#g"/><path fill="#0A84FF" fill-opacity=".8" d="M111.63 274.13a1.94 1.94 0 0 1 1.1 1.76c0 .49-.14.9-.43 1.2-.28.32-.66.54-1.13.65.53.05.97.24 1.3.58.34.33.51.79.51 1.36 0 .47-.11.89-.34 1.26a2.3 2.3 0 0 1-.96.89c-.41.2-.9.31-1.44.31a3.3 3.3 0 0 1-1.34-.27c-.4-.18-.76-.45-1.07-.8l.66-.62c.27.27.54.47.81.6.28.13.58.2.9.2.51 0 .9-.15 1.2-.43.28-.29.43-.67.43-1.15 0-.53-.14-.9-.41-1.11a1.88 1.88 0 0 0-1.19-.33h-.6l.13-.85h.41c.42 0 .76-.12 1.04-.37s.41-.6.41-1.05c0-.37-.12-.67-.36-.89a1.38 1.38 0 0 0-.97-.33c-.31 0-.6.06-.86.17-.26.11-.52.3-.8.55l-.57-.66a3.28 3.28 0 0 1 2.3-.95c.49 0 .91.1 1.27.28zm7.83 2.27c.38.57.56 1.38.56 2.43 0 1-.21 1.8-.64 2.4-.44.61-1.05.91-1.84.91-.7 0-1.26-.24-1.66-.72v3l-1.1.14v-8.88h.95l.08.85c.23-.32.51-.57.84-.74a2.2 2.2 0 0 1 1.03-.26c.81 0 1.4.29 1.78.87zm-.62 2.43c0-1.61-.48-2.42-1.43-2.42-.31 0-.6.09-.85.27-.26.19-.48.42-.68.71v3.09a1.62 1.62 0 0 0 1.4.77c1.04 0 1.56-.81 1.56-2.42zm7.45 3.17h-1.33l-1.55-2.68-1.57 2.68h-1.25l2.2-3.34-1.95-2.98h1.3l1.32 2.31 1.33-2.31h1.25l-1.95 2.94 2.2 3.38zm90.34-7.87a1.94 1.94 0 0 1 1.1 1.76c0 .49-.14.9-.43 1.2-.28.32-.66.54-1.13.65.53.05.97.24 1.3.58.34.33.51.79.51 1.36 0 .47-.11.89-.34 1.26a2.3 2.3 0 0 1-.96.89c-.41.2-.9.31-1.44.31a3.3 3.3 0 0 1-1.34-.27c-.4-.18-.76-.45-1.07-.8l.66-.62c.27.27.54.47.81.6.28.13.58.2.9.2.51 0 .9-.15 1.2-.43.28-.29.43-.67.43-1.15 0-.53-.14-.9-.41-1.11a1.88 1.88 0 0 0-1.19-.33h-.6l.13-.85h.41c.42 0 .76-.12 1.04-.37s.41-.6.41-1.05c0-.37-.12-.67-.36-.89a1.38 1.38 0 0 0-.97-.33c-.31 0-.6.06-.86.17-.26.11-.52.3-.8.55l-.57-.66a3.28 3.28 0 0 1 2.3-.95c.49 0 .91.1 1.27.28zm7.83 2.27c.38.57.56 1.38.56 2.43 0 1-.21 1.8-.64 2.4-.44.61-1.05.91-1.84.91-.7 0-1.26-.24-1.66-.72v3l-1.1.14v-8.88h.95l.08.85c.23-.32.51-.57.84-.74a2.2 2.2 0 0 1 1.03-.26c.81 0 1.4.29 1.78.87zm-.62 2.43c0-1.61-.48-2.42-1.43-2.42-.31 0-.6.09-.85.27-.26.19-.48.42-.68.71v3.09a1.62 1.62 0 0 0 1.4.77c1.04 0 1.56-.81 1.56-2.42zm7.45 3.17h-1.33l-1.55-2.68-1.57 2.68h-1.25l2.2-3.34-1.95-2.98h1.3l1.32 2.31 1.33-2.31h1.25l-1.95 2.94 2.2 3.38z"/><rect width="76" height="76" x="152" y="177.5" stroke="#0A84FF" stroke-width="2" rx="38"/><rect width="76" height="76" x="99" y="153" stroke="#0A84FF" stroke-width="2" rx="38"/><use fill="#0A84FF" fill-opacity=".25" xlink:href="#h"/><use fill="black" filter="url(#i)" xlink:href="#h"/><g><use fill="#0A84FF" fill-opacity=".25" xlink:href="#j"/><use fill="black" filter="url(#k)" xlink:href="#j"/></g></g></svg>
